icons/chat-voice-fill.svg

<svg viewBox="0 0 24 24" fill="currentColor" xmlns="http://www.w3.org/2000/svg"><path d="M4.92893 19.0711C3.11929 17.2614 2 14.7614 2 12C2 6.47715 6.47715 2 12 2C17.5228 2 22 6.47715 22 12C22 17.5228 17.5228 22 12 22H2L4.92893 19.0711ZM11 6V18H13V6H11ZM7 9V15H9V9H7ZM15 9V15H17V9H15Z"/></svg>

<svg xmlns="http://www.w3.org/2000/svg" viewBox="0 0 24 24">
    <g>
        <path fill="none" d="M0 0h24v24H0z"/>
        <path d="M4.929 19.071A9.969 9.969 0 0 1 2 12C2 6.477 6.477 2 12 2s10 4.477 10 10-4.477 10-10 10H2l2.929-2.929zM11 6v12h2V6h-2zM7 9v6h2V9H7zm8 0v6h2V9h-2z"/>
    </g>
</svg>
